X:244
T: Susanna, willt du mit?
N: A0290A
O: Europa, Mitteleuropa, Deutschland
N: Calvisius Harmonia Cantionum Ecclesiasticum 1597 No. 77
R: Romanze, Ballade, Lied
M: 4/2
L: 1/2
K: G
G2 | _BGBc | d3
G | _BGBc | d3
d | dddd | _BBA
G | cccd | _BBA
d | dc_BA | G3
d | dc_BA | G2

@@@ Tune index: 244
